!!!COM:	Japart, Jean
!!!CDT:	~1450//-~1507//
!!!OTL:	J'ay bien nori
!!!AGN:	Song; Chanson
!!!SCT:	Jap3010
!!!SCA:	Jap3010
!!!voices:	3
**kern	**kern	**kern
*staff3	*staff2	*staff1
*Ivox	*Ivox	*Ivox
*I"Contra	*I"Tenor	*I"Discantus
*I'C	*I'T	*I'D
*clefGv2	*clefGv2	*clefG2
*k[b-]	*k[b-]	*k[b-]
*M2/1	*M2/1	*M2/1
*met(C|)	*met(C|)	*met(C|)
=1-	=1-	=1-
!	!LO:TX:X=-40:Z=8:t=Twofold T statement, the second at double the speed of the first	!
0r	0r	0g
=2	=2	=2
0G	0r	1g
.	.	1g
=3	=3	=3
1G	0r	[0dd
1G	.	.
=4	=4	=4
0d	0r	1dd]
.	.	1dd
=5	=5	=5
1d	0G	1.b-
1d	.	.
.	.	2a
=6	=6	=6
1e	1G	2g
.	.	1b-
[1d	1G	.
.	.	4a
.	.	4g
=7	=7	=7
2d]	[0d	1.f
2c	.	.
2B-	.	.
4A	.	2g
4G	.	.
=8	=8	=8
1F	1d]	1a
1G	1d	1b-
=9	=9	=9
2C	1e	1g
2.G	.	.
.	1d	1r
4A	.	.
[2B-	.	.
=10	=10	=10
4B-]	1c	1r
4A	.	.
1A	.	.
.	1B-	1dd
2G	.	.
=11	=11	=11
1.A	0A	1.cc
4G	.	4b-
4F	.	4a
=12	=12	=12
2G	1r	2b-
1F	.	1a
.	1A	.
4E	.	4g
4D	.	4f
=13	=13	=13
2.C	1c	2.e
4D	.	4f
2E	1c	2g
[2F	.	[2a
=14	=14	=14
2F]	1c	2a]
2G	.	2b-
1A	1c	1cc
=15	=15	=15
1G	1.d	1b-
1F	.	[1a
.	2c	.
=16	=16	=16
0G	0B-	2a]
.	.	4g
.	.	4f
.	.	1g
=17	=17	=17
1r	0A	[0a
[1D	.	.
=18	=18	=18
1D]	0r	0a]
1D	.	.
=19	=19	=19
1D	0d	1r
2r	.	1f
2D	.	.
=20	=20	=20
1F	1d	1a
1G	1d	1b-
=21	=21	=21
2.A	[0c	2.cc
4G	.	4b-
2E	.	2g
[2F	.	[2a
=22	=22	=22
4F]	1c]	4a]
4E	.	4g
2F	.	4f
.	.	4e
1G	1B-	2d
.	.	[2g
=23	=23	=23
1D	1A	2g]
.	.	2f
1r	1G	2g
.	.	[2e
=24	=24	=24
1r	1F	4e]
.	.	4d
.	.	1d
1G	1E	.
.	.	2c#i
=25	=25	=25
1.A	0D	[0d
[2B-	.	.
=26	=26	=26
2B-]	1r	0d]
4A	.	.
4G	.	.
2F	1D	.
2G	.	.
=27	=27	=27
1A	1F	1r
2B-	1G	1d
2G	.	.
=28	=28	=28
1D	1A	1f
1E	1G	1g
=29	=29	=29
1F	0c	1a
2G	.	2g
[2A	.	[2cc
=30	=30	=30
4A]	0A	4cc]
4G	.	4b-
4F	.	4a
4E	.	4g
2D	.	2f
2F	.	2cc
=31	=31	=31
2G	1G	2b-
1B-	.	1dd
.	[1d	.
2A	.	2cc
=32	=32	=32
2G	1d]	1b-
2D	.	.
1F	1c	[1a
=33	=33	=33
1G	1B-	2a]
.	.	2g
1E	1G	[1g
=34	=34	=34
0D	0A	1g]
.	.	1f#i
=35	=35	=35
*M2/1	*	*
*met(C|2)	*	*
*rscale:2	*	*
2r	[0G	0g
2G	.	.
2G	.	.
2G	.	.
=36	=36	=36
1.d	0G]	0r
2d	.	.
=37	=37	=37
*	*M2/1	*M2/1
*	*met(C|2)	*met(C|2)
*	*rscale:2	*rscale:2
2e	0r	1g
2e	.	.
2e	.	2g
2e	.	2g
=38	=38	=38
2.d	0r	1.dd
4c	.	.
4B-	.	.
4A	.	.
[2G	.	2dd
=39	=39	=39
4G]	1G	2ee
4A	.	.
2.B-	.	2dd
.	2G	2cc
4A	.	.
2G	2G	2b-
=40	=40	=40
2F	1.d	1a
2D	.	.
2G	.	2r
2D	2d	2a
=41	=41	=41
2A	2e	2cc
2B-	2d	2dd
2c	2c	2ee
2d	2B-	[2dd
=42	=42	=42
1e	1A	2dd]
.	.	2cc
2d	2r	2dd
2f	2A	4cc
.	.	4b-
=43	=43	=43
4e	2c	1a
4d	.	.
4c	2c	.
4B-	.	.
2A	2c	1r
2c	2c	.
=44	=44	=44
2B-	2.d	2r
2.G	.	2dd
.	4c	.
.	1B-	2dd
4F	.	.
2G	.	2dd
=45	=45	=45
2.A	1A	2.cc
4G	.	4b-
2F	1r	2a
2E	.	2g
=46	=46	=46
1D	1d	2.f
.	.	4e
2r	2d	1d
2D	2d	.
=47	=47	=47
2.F	1.c	0r
4G	.	.
2A	.	.
2B-	2B-	.
=48	=48	=48
2c	2A	0r
1d	2G	.
.	2F	.
2c#i	2E	.
=49	=49	=49
1d	1D	2r
.	.	2d
1A	2r	2.f
.	2D	.
.	.	4g
=50	=50	=50
2r	2F	2a
2E	2G	2g
2F	2A	2cc
2G	2G	4b-
.	.	4a
=51	=51	=51
2E	1c	2g
2.F	.	2.a
.	1A	.
4G	.	4b-
2A	.	4cc
.	.	4dd
=52	=52	=52
2B-	2G	2.b-
2.G	1d	.
.	.	4a
.	.	2b-
4D	.	.
2F	2c	[2a
=53	=53	=53
1G	2B-	4a]
.	.	4g
.	2G	1g
1D	1A	.
.	.	2f#i
=54	=54	=54
0Gl	0Gl	0gl
*rscale:1	*rscale:1	*rscale:1
==	==	==
*-	*-	*-
!!!RDF**kern: l=long note in original notation
!!!RDF**kern: i=editorial accidental
!!!RDF**kern: V=start of tuplet marker
!!!RDF**kern: Z=end of tuplet marker
!!!ENC:	Chris Gage 09-11-2013
!!!END:	2013/10/23/
!!!EED:	Jesse Rodin
!!!EEV:	2013/12/19/
!!!ONB:	Translated from MusicXML and edited on 2013/12/19/ by Craig Sapp
!!muse2ps: C^@{COM}^i2I150v90,90,120Q16
